!!!OTL: Die Ritterfahrt.
!!!OTL-incipit: DER HERZOG ERNST AUS SCHWABENLAND
!!!ARE: Europa, Mitteleuropa, Deutschland, Nord - Deutschland
!!!SCT: Z1033
!!!TXL: @@DE
!!!YEM: Copyright 1995, estate of Helmut Schaffrath.
**kern	**text
*ICvox	*
*M2/4	*
*k[]	*
*a:	*
!LO:TX:a:t=Vorſänger.	!
!LO:TX:a:t=Ernſt-Sage. Jn Norddeutſchland.	!
{8e	Der
=1	=1
8a	Her-
8b/	-ʒog
8cc	Ernſt
8b	aus
=2	=2
8a	Schwaben-
8b/	.
8cc;}	-land
{8b	muß
=3	=3
8ee	flie-
8ee	-hen
8dd	aus
8cc	des
=4	=4
8b	Kö-
16bL	-nigs-
16ccJ	.
8a;}	-hand,
{8a	er
=5	=5
8ee	ſtieg
8ff	ʒu
8gg	Schiff
8dd	mit
=6	=6
8ee	dem
8cc	Ge-
8b;}	-leit,
!LO:TX:a:t=Alle.	!
{8g	er
=7	=7
8ee/	ſtieg
8ff/	ʒu
8gg/	Schiff
8dd/	mit
=8	=8
8ee/	dem
8cc/	Ge-
8b;/}	-leit!
!LO:TX:a:t=Vorſänger.	!
{8g	das
=9	=9
8ee	Meer
8dd	war
8cc	tief,
8b	das
=10	=10
8a	Meer
8b/	war
8g#;}	breit,
!LO:TX:a:t=Alle.	!
{8e	das
=11	=11
8ee/	Meer
8dd/	war
8cc/	tief,
8b/	das
=12	=12
8a	Meer
8b/	war
8g#;}	breit,
{8e	und
=13	=13
8a	ſcheint
8b/	auch
8cc/	al-
8b/	-le
=14	=14
8a	Hül-
8b/	-fe
8cc;/}	fern,
{8b/	ver-
=15	=15
8ee/	-traue
8ee/	.
8dd/	du
8cc/	nur
=16	=16
8b/	Gott
16cc/L	dem
16bJ	.
8a}	Herrn!
==	==
!!!Ag: Romanze, Ballade, Ernst - Sage
!!!ONB: ESAC (Essen Associative Code) Database: ZUCCAL
!!!AMT: simple duple
!!!AIN: vox
!!!EED: Helmut Schaffrath
!!!EEV: 1.0
!!@@COMMENT:"In original fragments for two voices"
!!@@END:
!!!GTL: I. Volks- Leuschen.
!!!URL-scan: https://www.digitale-sammlungen.de/de/view/bsb11160573?page=83
!!!ENC: Anna Maria Matuszewska
!!!EEV: 2025/03/02
*-	*-
